X:1
T:Brasted, 77.77
T:Brasted, 77.77
T:Georg P. Weimar, 1780
T:Public Domain Courtesy of the Cyber Hymnal™
C:Georg P. Weimar, 1780
Z:Public Domain
Z:Courtesy of the Cyber Hymnal™
%%score ( 1 2 ) ( 3 4 )
L:1/8
Q:1/4=112
M:4/4
K:G
V:1 treble 
V:2 treble 
V:3 bass 
V:4 bass 
V:1
 [DG]2 D2 (EF) ([DG][FA]) | [GB]2 [FA]2 [DG]4 | [GB]2 [FA]2 [EG]2 [DF]2 | [DE]2 [^CE]2 D4 | %4
 [Fd]2 (dc) [GB]2 [DG]2 | c2 [GB]2 [FA]4 | [GB]2 [FA]2 [EG]2 [DB]2 | [EA]2 A2 [B,G]4 |] %8
V:2
 x2 D2 C2 x2 | x8 | x8 | x4 D4 | x2 A2 x4 | (EF) x6 | x8 | x2 (DC) x4 |] %8
V:3
 [G,,B,]2 [B,,G,]2 (G,A,) ([B,,B,][A,,C]) | [G,,D]2 (DC) [G,B,]4 | [G,D]2 (DC) [E,B,]2 B,2 | %3
 [G,,B,]2 (A,G,) [D,F,]4 | [D,A,]2 [F,D]2 [G,D]2 [B,D]2 | [A,C]2 [G,D]2 [D,D]4 | %6
 [G,D]2 (DC) [E,B,]2 [B,,G,]2 | [C,G,]2 [D,F,]2 [G,,G,]4 |] %8
V:4
 x4 C,2 x2 | x2 D,2 x4 | x2 D,2 x (B,,A,,) x | x2 A,,2 x4 | x8 | x8 | x2 D,2 x4 | x8 |] %8

